X:170
T:Carthy's March
C:Dave Swarbrick
B:Dave Swarbrick Takes a Bow
Z:Nigel Gatherer
M:4/4
L:1/8
K:G
(3DEF|G2 G2 G2 D>E|(3=FGF E>F D>CB,>C|D>G G2 G2 A>B|
(3cdc B>c A2 B>c|d>d d2 d2 e>d|(3cdc B>c A>F D>E|(3=FGF E>F D>CB,>C|
D2 G>A _B2 (3c=BA|G2 F/G/F/D/ C2 B,/c/B,/G,/|1 A,2 D2 D2:|2 A,6 (3efg||
a2 a2 a2 g/a/g/f/|g2 ef g4|a2 fe d2 ef|g4-g4|f2 fe d^cAG|
A2 A2 A4|f2 fe d^cAG|A6 (3efg|a2 a2 a2 g/a/g/f/|g2 ef g4|
a2 f/g/f/e/ d2 ef|g4-g4|=f2 fe d^cAG|AGA_B A4|
(3gfe d^c AGAc|d4-d4|]
